X: 26383
T: Merry Boys Of Greenland, The
R: reel
M: 4/4
K: Dmajor
ABde fdf2|e2ce Aece|ABde fdfa|gecA d2d2:|
fgfe fga2|efed efge|fgfe fgaf|gecA d2d2:|

